X: 1
T: The Boys of the Town
N: as played by Morgan MacQuarrie "Loch Ban"
S: arr. T. Traub 2003-11-6
R: Jig
M: 6/8
K: G
L: 1/8
D |\
"G"GAG GBd | "C"edB "D"dBA | "G"GAG "Em"GBd | "C"edB "D"AFD |\
"G"GAG GBd | "Em"edB gfg | "C"edB "D"AGA | "G"BGG G2 :|
B |\
"G"def gfg | "D"afd "C"edB | "G"def gfg | "D"afd e2 f |\
"G"def gfg | "D"afd "C"efg | "G"edB "D"AGA | "G"BGG G2 ||
B |\
"G"def gfg | "D"afd "C"edB | "G"def gfg | "D"afd e2 f |\
"G"def gbb | "D"faa egg | "C"edB "D"AGA | "G"BGG G2 |]
